src/images/button-delete-card.svg

<svg width="21" height="21" viewBox="0 0 21 21" fill="none" xmlns="http://www.w3.org/2000/svg">
<rect width="21" height="21" rx="10.5" fill="#313131"/>
<path fill-rule="evenodd" clip-rule="evenodd" d="M10.5005 11.4429L12.8575 13.7999L13.9182 12.7393L11.5611 10.3822L13.8004 8.14295L12.7397 7.08229L10.5005 9.32155L8.26134 7.08241L7.20068 8.14307L9.43983 10.3822L7.08289 12.7391L8.14355 13.7998L10.5005 11.4429Z" fill="white"/>
</svg>

<svg width="21" height="21" fill="none" xmlns="http://www.w3.org/2000/svg"><rect width="21" height="21" rx="10.5" fill="#313131"/><path fill-rule="evenodd" clip-rule="evenodd" d="m10.5 11.443 2.357 2.357 1.061-1.06-2.357-2.358 2.24-2.239-1.061-1.06-2.24 2.239-2.239-2.24-1.06 1.061 2.239 2.24-2.357 2.356 1.06 1.06 2.357-2.356Z" fill="#fff"/></svg>
